X: 28036
T: Moving Pint, The
R: reel
M: 4/4
K: Gmajor
G3B A3d|B2BA BGEF|GABG A2 (3Bcd|eA (3cBA EA (3cBA|
G3B A^GAd|B2BA BE~E2|GABG ABcd|1 ecAF GDB,D:|2 ecAF GA (3Bcd||
|:g2fg edBd|eaag agef|g2fg edBd|(3efg fa ~g3f|
(3gfe fg edBd|eaag agef|gbag eage|1 dBAB GA (3Bcd:|2 dged ~B3A||

